icons-rebrand/svg/away-calling-presence-regular.svg

<svg width="32" height="32" viewBox="0 0 32 32" fill="none" xmlns="http://www.w3.org/2000/svg">
<path d="M17.25 9C17.25 5.82436 19.8243 3.25 23 3.25C26.1756 3.25 28.75 5.82436 28.75 9C28.75 12.1756 26.1756 14.75 23 14.75C19.8243 14.75 17.25 12.1756 17.25 9ZM23 4.75C20.6527 4.75 18.75 6.65279 18.75 9C18.75 11.3472 20.6527 13.25 23 13.25C25.3472 13.25 27.25 11.3472 27.25 9C27.25 6.65279 25.3472 4.75 23 4.75ZM26.25 9C26.25 9.41421 25.9142 9.75 25.5 9.75L20.5 9.75C20.0857 9.75 19.75 9.41421 19.75 9C19.75 8.58579 20.0857 8.25 20.5 8.25L25.5 8.25C25.9142 8.25 26.25 8.58579 26.25 9Z" fill="#0F0F0F"/>
<path d="M27.9826 21.5768L25.1765 18.7706C24.563 18.1585 23.7316 17.8152 22.8651 17.816C21.9985 17.8169 21.1678 18.1619 20.5555 18.7752C20.5555 18.7752 19.2462 20.1066 18.773 20.5825C16.8263 20.5553 14.9669 19.7699 13.5901 18.3933C12.2133 17.0167 11.4277 15.1574 11.4002 13.2107C11.8761 12.7374 13.2084 11.4281 13.2121 11.4235C13.5154 11.1205 13.7559 10.7607 13.9201 10.3646C14.0842 9.9686 14.1687 9.54409 14.1687 9.11537C14.1687 8.68666 14.0842 8.26215 13.9201 7.8661C13.7559 7.47005 13.5154 7.11023 13.2121 6.80721L10.4059 4.00107C9.78195 3.40485 8.95212 3.07213 8.08907 3.07213C7.22602 3.07213 6.3962 3.40485 5.7722 4.00107L4.27175 5.50058C2.30451 7.46791 1.88638 14.4006 9.73433 22.2493C13.9748 26.4899 17.7071 28.0427 20.0916 28.5977C20.9513 28.8038 21.8317 28.9111 22.7157 28.9176C24.0798 29.0157 25.429 28.5835 26.4822 27.7112L27.9826 26.2117C28.287 25.9074 28.5285 25.5461 28.6932 25.1485C28.858 24.7509 28.9428 24.3247 28.9428 23.8943C28.9428 23.4639 28.858 23.0377 28.6932 22.6401C28.5285 22.2425 28.287 21.8811 27.9826 21.5768ZM26.9847 25.2136L25.4842 26.7133C24.8227 27.3748 22.9532 27.8177 20.4113 27.2231C18.2061 26.7095 14.7377 25.2567 10.7322 21.2516C3.53295 14.0514 3.90329 7.86572 5.26957 6.4985L6.77012 4.99889C7.12524 4.65922 7.59771 4.46964 8.08912 4.46964C8.58053 4.46964 9.053 4.65922 9.40812 4.99889L12.2141 7.80512C12.5609 8.1517 12.7562 8.62168 12.7571 9.11202C12.7579 9.60236 12.5643 10.073 12.2187 10.4208C12.2187 10.4208 10.6862 11.928 10.3168 12.2987C10.1875 12.458 10.091 12.6414 10.0328 12.8382C9.97469 13.035 9.9561 13.2414 9.97812 13.4454C10.0962 15.6796 11.0258 17.7939 12.5923 19.3913C14.9163 21.7153 18.8211 22.5319 19.6849 21.6682C20.0552 21.2979 21.5584 19.7689 21.5584 19.7689C21.9063 19.4221 22.3775 19.2273 22.8687 19.2273C23.3599 19.2273 23.8311 19.4221 24.1789 19.7689L26.9851 22.5751C27.3344 22.9253 27.5306 23.3998 27.5305 23.8944C27.5304 24.389 27.3341 24.8635 26.9847 25.2136Z" fill="#0F0F0F"/>
</svg>

<svg xmlns="http://www.w3.org/2000/svg" width="32" height="32" viewBox="0 0 32 32"><path d="M17.25 9a5.75 5.75 0 1 1 11.5 0 5.75 5.75 0 0 1-11.5 0M23 4.75a4.25 4.25 0 1 0 0 8.5 4.25 4.25 0 0 0 0-8.5M26.25 9a.75.75 0 0 1-.75.75h-5a.75.75 0 1 1 0-1.5h5a.75.75 0 0 1 .75.75M27.983 21.577l-2.806-2.806a3.27 3.27 0 0 0-4.622.004s-1.309 1.332-1.782 1.808A7.48 7.48 0 0 1 11.4 13.21c.476-.474 1.808-1.783 1.812-1.787a3.263 3.263 0 0 0 0-4.617l-2.806-2.806a3.354 3.354 0 0 0-4.634 0l-1.5 1.5c-1.967 1.967-2.386 8.9 5.462 16.748 4.24 4.24 7.973 5.794 10.358 6.349.86.206 1.74.313 2.624.32a5.3 5.3 0 0 0 3.766-1.207l1.5-1.5a3.276 3.276 0 0 0 0-4.634m-.998 3.637-1.5 1.5c-.662.66-2.532 1.104-5.074.51-2.205-.515-5.673-1.967-9.679-5.972-7.199-7.2-6.829-13.386-5.462-14.753l1.5-1.5a1.91 1.91 0 0 1 2.638 0l2.806 2.806a1.853 1.853 0 0 1 .005 2.616s-1.533 1.507-1.902 1.878a1.56 1.56 0 0 0-.339 1.146 9.19 9.19 0 0 0 2.614 5.946c2.324 2.324 6.23 3.14 7.093 2.277.37-.37 1.873-1.9 1.873-1.9a1.856 1.856 0 0 1 2.62 0l2.807 2.807a1.87 1.87 0 0 1 0 2.639"/></svg>
